svgs/thin/chart-line-up.svg

<svg xmlns="http://www.w3.org/2000/svg" viewBox="0 0 512 512"><!-- Font Awesome Pro 6.0.0-alpha2 by @fontawesome - https://fontawesome.com License - https://fontawesome.com/license (Commercial License) --><path d="M103.994 320.006C106.057 320.006 108.088 319.225 109.65 317.662L192 235.312L282.344 325.656C285.469 328.781 290.531 328.781 293.656 325.656L464 155.312V256C464 260.422 467.594 264 472 264S480 260.422 480 256V136C480 131.578 476.406 128 472 128H352C347.594 128 344 131.578 344 136S347.594 144 352 144H452.688L288 308.688L197.656 218.344C194.531 215.219 189.469 215.219 186.344 218.344L98.338 306.35C95.213 309.475 95.213 314.537 98.338 317.662C99.9 319.225 101.932 320.006 103.994 320.006ZM504 464H72C41.125 464 16 438.875 16 408V40C16 35.594 12.406 32 8 32S0 35.594 0 40V408C0 447.688 32.312 480 72 480H504C508.406 480 512 476.406 512 472S508.406 464 504 464Z"/></svg>

<svg xmlns="http://www.w3.org/2000/svg" viewBox="0 0 512 512"><!--! Font Awesome Pro 6.4.0 by @fontawesome - https://fontawesome.com License - https://fontawesome.com/license (Commercial License) Copyright 2023 Fonticons, Inc. --><path d="M16 40c0-4.4-3.6-8-8-8s-8 3.6-8 8V408c0 39.8 32.2 72 72 72H504c4.4 0 8-3.6 8-8s-3.6-8-8-8H72c-30.9 0-56-25.1-56-56V40zm336 88c-4.4 0-8 3.6-8 8s3.6 8 8 8H452.7L288 308.7l-90.3-90.3c-3.1-3.1-8.2-3.1-11.3 0l-96 96c-3.1 3.1-3.1 8.2 0 11.3s8.2 3.1 11.3 0L192 235.3l90.3 90.3c3.1 3.1 8.2 3.1 11.3 0L464 155.3V256c0 4.4 3.6 8 8 8s8-3.6 8-8V136c0-4.4-3.6-8-8-8H352z"/></svg>
